SVG_Azure_Grouped/Application/API Management Named Value.svg

<?xml version="1.0" encoding="UTF-8" standalone="no"?>
<!-- Generated by Microsoft Visio, SVG Export API Management Named Value.svg Page-1 -->

<svg
   xmlns:dc="http://purl.org/dc/elements/1.1/"
   xmlns:cc="http://creativecommons.org/ns#"
   xmlns:rdf="http://www.w3.org/1999/02/22-rdf-syntax-ns#"
   xmlns:svg="http://www.w3.org/2000/svg"
   xmlns="http://www.w3.org/2000/svg"
   xmlns:sodipodi="http://sodipodi.sourceforge.net/DTD/sodipodi-0.dtd"
   xmlns:inkscape="http://www.inkscape.org/namespaces/inkscape"
   width="0.78735948in"
   height="0.62993622in"
   viewBox="0 0 56.68979 45.355505"
   xml:space="preserve"
   class="st5"
   version="1.1"
   id="svg77"
   sodipodi:docname="API Management Named Value.svg"
   style="font-size:12px;overflow:visible;color-interpolation-filters:sRGB;fill:none;fill-rule:evenodd;stroke-linecap:square;stroke-miterlimit:3"
   inkscape:version="0.92.5 (2060ec1f9f, 2020-04-08)"><metadata
   id="metadata81"><rdf:RDF><cc:Work
       rdf:about=""><dc:format>image/svg+xml</dc:format><dc:type
         rdf:resource="http://purl.org/dc/dcmitype/StillImage" /></cc:Work></rdf:RDF></metadata><sodipodi:namedview
   pagecolor="#ffffff"
   bordercolor="#666666"
   borderopacity="1"
   objecttolerance="10"
   gridtolerance="10"
   guidetolerance="10"
   inkscape:pageopacity="0"
   inkscape:pageshadow="2"
   inkscape:window-width="640"
   inkscape:window-height="480"
   id="namedview79"
   showgrid="false"
   inkscape:zoom="1.5612629"
   inkscape:cx="37.795262"
   inkscape:cy="30.225663"
   inkscape:window-x="0"
   inkscape:window-y="0"
   inkscape:window-maximized="0"
   inkscape:current-layer="svg77" />
	<style
   type="text/css"
   id="style2">
	<![CDATA[
		.st1 {fill:url(#grad0-6);stroke:none;stroke-linecap:butt;stroke-width:34}
		.st2 {fill:#0078d4;stroke:none;stroke-linecap:butt;stroke-width:34}
		.st3 {fill:#ffffff;fill-opacity:0.9;stroke:none;stroke-linecap:butt;stroke-width:34}
		.st4 {fill:#ffd400;stroke:none;stroke-linecap:butt;stroke-width:34}
		.st5 {fill:none;fill-rule:evenodd;font-size:12px;overflow:visible;stroke-linecap:square;stroke-miterlimit:3}
	]]>
	</style>

	<defs
   id="Patterns_And_Gradients">
		<linearGradient
   id="grad0-6"
   x1="0"
   y1="104.3574"
   x2="43.474643"
   y2="104.3574"
   gradientTransform="scale(1.3039785,0.76688381)"
   gradientUnits="userSpaceOnUse">
			<stop
   offset="0"
   stop-color="#0078d4"
   stop-opacity="1"
   id="stop4" />
			<stop
   offset="0.5"
   stop-color="#4093e6"
   stop-opacity="1"
   id="stop6" />
			<stop
   offset="0.775"
   stop-color="#5ea0ef"
   stop-opacity="1"
   id="stop8" />
		</linearGradient>
	</defs>
	<g
   id="g75"
   transform="translate(-34.000229,-33.998791)">
		<title
   id="title12">Page-1</title>
		<g
   id="group14918-1"
   transform="translate(34,-34.0157)">
			<title
   id="title14">API Management Named Value.14918</title>
			<g
   id="group14919-2">
				<title
   id="title16">MsPortalFx.base.images-4</title>
				<g
   id="shape14920-3">
					<title
   id="title18">Sheet.14920</title>
					<path
   d="m 0,80.03 h 56.69 v 31.46 a 1.89421,1.88479 0 0 1 -1.89,1.88 H 1.89 A 1.89421,1.88479 0 0 1 0,111.49 Z"
   class="st1"
   id="path20"
   inkscape:connector-curvature="0"
   style="fill:url(#grad0-6);stroke:none;stroke-width:34;stroke-linecap:butt" />
				</g>
				<g
   id="shape14921-7"
   transform="translate(0,-33.3355)">
					<title
   id="title23">Sheet.14921</title>
					<path
   d="m 1.9,101.35 h 52.89 a 1.89421,1.88479 0 0 1 1.89,1.89 v 10.13 H 0 v -10.13 a 1.89421,1.88479 0 0 1 1.9,-1.89 z"
   class="st2"
   id="path25"
   inkscape:connector-curvature="0"
   style="fill:#0078d4;stroke:none;stroke-width:34;stroke-linecap:butt" />
				</g>
				<g
   id="shape14922-9"
   transform="translate(6.01612,-22.7734)">
					<title
   id="title28">Sheet.14922</title>
					<path
   d="m 0,112.43 a 0.943792,0.939097 -180 0 0 0.94377,0.93908 L 11.23,113.37 a 0.943792,0.939097 -180 0 0 0.94377,-0.93907 L 12.17,108.17 a 0.943792,0.939097 -180 0 0 -0.94377,-0.93908 L 0.94,107.23 a 0.943792,0.939097 -180 0 0 -0.94377,0.93908 z"
   class="st3"
   id="path30"
   inkscape:connector-curvature="0"
   style="fill:#ffffff;fill-opacity:0.9;stroke:none;stroke-width:34;stroke-linecap:butt" />
				</g>
				<g
   id="shape14923-11"
   transform="translate(22.3437,-22.8597)">
					<title
   id="title33">Sheet.14923</title>
					<path
   d="m 0,112.43 a 0.943792,0.939097 -180 0 0 0.94377,0.93908 L 11.23,113.37 a 0.943792,0.939097 -180 0 0 0.94377,-0.93907 L 12.17,108.17 a 0.943792,0.939097 -180 0 0 -0.94377,-0.93908 L 0.94,107.23 a 0.943792,0.939097 -180 0 0 -0.94377,0.93908 z"
   class="st3"
   id="path35"
   inkscape:connector-curvature="0"
   style="fill:#ffffff;fill-opacity:0.9;stroke:none;stroke-width:34;stroke-linecap:butt" />
				</g>
				<g
   id="shape14924-13"
   transform="translate(38.6712,-22.8597)">
					<title
   id="title38">Sheet.14924</title>
					<path
   d="m 0,112.43 a 0.943792,0.939097 -180 0 0 0.94377,0.93908 L 11.23,113.37 a 0.943792,0.939097 -180 0 0 0.94377,-0.93907 L 12.17,108.17 a 0.943792,0.939097 -180 0 0 -0.94377,-0.93908 L 0.94,107.23 a 0.943792,0.939097 -180 0 0 -0.94377,0.93908 z"
   class="st3"
   id="path40"
   inkscape:connector-curvature="0"
   style="fill:#ffffff;fill-opacity:0.9;stroke:none;stroke-width:34;stroke-linecap:butt" />
				</g>
				<g
   id="shape14925-15"
   transform="translate(6.1962,-13.9932)">
					<title
   id="title43">Sheet.14925</title>
					<path
   d="m 0,112.43 a 0.943792,0.939097 -180 0 0 0.94377,0.93908 L 11.23,113.37 a 0.943792,0.939097 -180 0 0 0.94377,-0.93907 L 12.17,108.17 a 0.943792,0.939097 -180 0 0 -0.94377,-0.93908 L 0.94,107.23 a 0.943792,0.939097 -180 0 0 -0.94377,0.93908 z"
   class="st3"
   id="path45"
   inkscape:connector-curvature="0"
   style="fill:#ffffff;fill-opacity:0.9;stroke:none;stroke-width:34;stroke-linecap:butt" />
				</g>
				<g
   id="shape14926-17"
   transform="translate(22.5238,-14.0795)">
					<title
   id="title48">Sheet.14926</title>
					<path
   d="m 0,112.43 a 0.943792,0.939097 -180 0 0 0.94377,0.93908 L 11.23,113.37 a 0.943792,0.939097 -180 0 0 0.94377,-0.93907 L 12.17,108.17 a 0.943792,0.939097 -180 0 0 -0.94377,-0.93908 L 0.94,107.23 a 0.943792,0.939097 -180 0 0 -0.94377,0.93908 z"
   class="st4"
   id="path50"
   inkscape:connector-curvature="0"
   style="fill:#ffd400;stroke:none;stroke-width:34;stroke-linecap:butt" />
				</g>
				<g
   id="shape14927-19"
   transform="translate(38.8513,-14.0795)">
					<title
   id="title53">Sheet.14927</title>
					<path
   d="m 0,112.43 a 0.943792,0.939097 -180 0 0 0.94377,0.93908 L 11.23,113.37 a 0.943792,0.939097 -180 0 0 0.94377,-0.93907 L 12.17,108.17 a 0.943792,0.939097 -180 0 0 -0.94377,-0.93908 L 0.94,107.23 a 0.943792,0.939097 -180 0 0 -0.94377,0.93908 z"
   class="st4"
   id="path55"
   inkscape:connector-curvature="0"
   style="fill:#ffd400;stroke:none;stroke-width:34;stroke-linecap:butt" />
				</g>
				<g
   id="shape14928-21"
   transform="translate(6.1962,-5.12675)">
					<title
   id="title58">Sheet.14928</title>
					<path
   d="m 0,112.43 a 0.943792,0.939097 -180 0 0 0.94377,0.93908 L 11.23,113.37 a 0.943792,0.939097 -180 0 0 0.94377,-0.93907 L 12.17,108.17 a 0.943792,0.939097 -180 0 0 -0.94377,-0.93908 L 0.94,107.23 a 0.943792,0.939097 -180 0 0 -0.94377,0.93908 z"
   class="st4"
   id="path60"
   inkscape:connector-curvature="0"
   style="fill:#ffd400;stroke:none;stroke-width:34;stroke-linecap:butt" />
				</g>
				<g
   id="shape14929-23"
   transform="translate(22.5238,-5.21303)">
					<title
   id="title63">Sheet.14929</title>
					<path
   d="m 0,112.43 a 0.943792,0.939097 -180 0 0 0.94377,0.93908 L 11.23,113.37 a 0.943792,0.939097 -180 0 0 0.94377,-0.93907 L 12.17,108.17 a 0.943792,0.939097 -180 0 0 -0.94377,-0.93908 L 0.94,107.23 a 0.943792,0.939097 -180 0 0 -0.94377,0.93908 z"
   class="st4"
   id="path65"
   inkscape:connector-curvature="0"
   style="fill:#ffd400;stroke:none;stroke-width:34;stroke-linecap:butt" />
				</g>
				<g
   id="shape14930-25"
   transform="translate(38.8513,-5.21303)">
					<title
   id="title68">Sheet.14930</title>
					<path
   d="m 0,112.43 a 0.943792,0.939097 -180 0 0 0.94377,0.93908 L 11.23,113.37 a 0.943792,0.939097 -180 0 0 0.94377,-0.93907 L 12.17,108.17 a 0.943792,0.939097 -180 0 0 -0.94377,-0.93908 L 0.94,107.23 a 0.943792,0.939097 -180 0 0 -0.94377,0.93908 z"
   class="st4"
   id="path70"
   inkscape:connector-curvature="0"
   style="fill:#ffd400;stroke:none;stroke-width:34;stroke-linecap:butt" />
				</g>
			</g>
		</g>
	</g>
</svg>

<?xml version="1.0" encoding="UTF-8" standalone="no"?>
<!DOCTYPE svg PUBLIC "-//W3C//DTD SVG 1.1//EN" "http://www.w3.org/Graphics/SVG/1.1/DTD/svg11.dtd">
<!-- Generated by Microsoft Visio, SVG Export API Management Named Value.svg Page-1 -->
<svg xmlns="http://www.w3.org/2000/svg" xmlns:xlink="http://www.w3.org/1999/xlink" xmlns:ev="http://www.w3.org/2001/xml-events"
		width="1.73185in" height="1.57458in" viewBox="0 0 124.693 113.37" xml:space="preserve" color-interpolation-filters="sRGB"
		class="st5">
	<style type="text/css">
	<![CDATA[
		.st1 {fill:url(#grad0-6);stroke:none;stroke-linecap:butt;stroke-width:34}
		.st2 {fill:#0078d4;stroke:none;stroke-linecap:butt;stroke-width:34}
		.st3 {fill:#ffffff;fill-opacity:0.9;stroke:none;stroke-linecap:butt;stroke-width:34}
		.st4 {fill:#ffd400;stroke:none;stroke-linecap:butt;stroke-width:34}
		.st5 {fill:none;fill-rule:evenodd;font-size:12px;overflow:visible;stroke-linecap:square;stroke-miterlimit:3}
	]]>
	</style>

	<defs id="Patterns_And_Gradients">
		<linearGradient id="grad0-6" x1="0" y1="0" x2="1" y2="0" gradientTransform="rotate(-90 0.5 0.5)">
			<stop offset="0" stop-color="#0078d4" stop-opacity="1"/>
			<stop offset="0.5" stop-color="#4093e6" stop-opacity="1"/>
			<stop offset="0.775" stop-color="#5ea0ef" stop-opacity="1"/>
		</linearGradient>
	</defs>
	<g>
		<title>Page-1</title>
		<g id="group14535-1" transform="translate(34,-34.0157)">
			<title>API Management Named Value.14535</title>
			<g id="group14536-2">
				<title>MsPortalFx.base.images-4</title>
				<g id="shape14537-3">
					<title>Sheet.14537</title>
					<path d="M0 80.03 L56.69 80.03 L56.69 111.49 A1.89421 1.88479 0 0 1 54.8 113.37 L1.89 113.37 A1.89421 1.88479
								 0 0 1 0 111.49 L0 80.03 Z" class="st1"/>
				</g>
				<g id="shape14538-7" transform="translate(0,-33.3355)">
					<title>Sheet.14538</title>
					<path d="M1.9 101.35 L54.79 101.35 A1.89421 1.88479 0 0 1 56.68 103.24 L56.68 113.37 L0 113.37 L0 103.24 A1.89421
								 1.88479 0 0 1 1.9 101.35 Z" class="st2"/>
				</g>
				<g id="shape14539-9" transform="translate(6.01612,-22.7734)">
					<title>Sheet.14539</title>
					<path d="M0 112.43 a0.943792 0.939097 -180 0 0 0.94377 0.939075 L11.23 113.37 a0.943792 0.939097 -180 0 0 0.94377
								 -0.939075 L12.17 108.17 a0.943792 0.939097 -180 0 0 -0.94377 -0.939075 L0.94 107.23 a0.943792 0.939097
								 -180 0 0 -0.94377 0.939075 L0 112.43 Z" class="st3"/>
				</g>
				<g id="shape14540-11" transform="translate(22.3437,-22.8597)">
					<title>Sheet.14540</title>
					<path d="M0 112.43 a0.943792 0.939097 -180 0 0 0.94377 0.939075 L11.23 113.37 a0.943792 0.939097 -180 0 0 0.94377
								 -0.939075 L12.17 108.17 a0.943792 0.939097 -180 0 0 -0.94377 -0.939075 L0.94 107.23 a0.943792 0.939097
								 -180 0 0 -0.94377 0.939075 L0 112.43 Z" class="st3"/>
				</g>
				<g id="shape14541-13" transform="translate(38.6712,-22.8597)">
					<title>Sheet.14541</title>
					<path d="M0 112.43 a0.943792 0.939097 -180 0 0 0.94377 0.939075 L11.23 113.37 a0.943792 0.939097 -180 0 0 0.94377
								 -0.939075 L12.17 108.17 a0.943792 0.939097 -180 0 0 -0.94377 -0.939075 L0.94 107.23 a0.943792 0.939097
								 -180 0 0 -0.94377 0.939075 L0 112.43 Z" class="st3"/>
				</g>
				<g id="shape14542-15" transform="translate(6.1962,-13.9932)">
					<title>Sheet.14542</title>
					<path d="M0 112.43 a0.943792 0.939097 -180 0 0 0.94377 0.939075 L11.23 113.37 a0.943792 0.939097 -180 0 0 0.94377
								 -0.939075 L12.17 108.17 a0.943792 0.939097 -180 0 0 -0.94377 -0.939075 L0.94 107.23 a0.943792 0.939097
								 -180 0 0 -0.94377 0.939075 L0 112.43 Z" class="st3"/>
				</g>
				<g id="shape14543-17" transform="translate(22.5238,-14.0795)">
					<title>Sheet.14543</title>
					<path d="M0 112.43 a0.943792 0.939097 -180 0 0 0.94377 0.939075 L11.23 113.37 a0.943792 0.939097 -180 0 0 0.94377
								 -0.939075 L12.17 108.17 a0.943792 0.939097 -180 0 0 -0.94377 -0.939075 L0.94 107.23 a0.943792 0.939097
								 -180 0 0 -0.94377 0.939075 L0 112.43 Z" class="st4"/>
				</g>
				<g id="shape14544-19" transform="translate(38.8513,-14.0795)">
					<title>Sheet.14544</title>
					<path d="M0 112.43 a0.943792 0.939097 -180 0 0 0.94377 0.939075 L11.23 113.37 a0.943792 0.939097 -180 0 0 0.94377
								 -0.939075 L12.17 108.17 a0.943792 0.939097 -180 0 0 -0.94377 -0.939075 L0.94 107.23 a0.943792 0.939097
								 -180 0 0 -0.94377 0.939075 L0 112.43 Z" class="st4"/>
				</g>
				<g id="shape14545-21" transform="translate(6.1962,-5.12675)">
					<title>Sheet.14545</title>
					<path d="M0 112.43 a0.943792 0.939097 -180 0 0 0.94377 0.939075 L11.23 113.37 a0.943792 0.939097 -180 0 0 0.94377
								 -0.939075 L12.17 108.17 a0.943792 0.939097 -180 0 0 -0.94377 -0.939075 L0.94 107.23 a0.943792 0.939097
								 -180 0 0 -0.94377 0.939075 L0 112.43 Z" class="st4"/>
				</g>
				<g id="shape14546-23" transform="translate(22.5238,-5.21303)">
					<title>Sheet.14546</title>
					<path d="M0 112.43 a0.943792 0.939097 -180 0 0 0.94377 0.939075 L11.23 113.37 a0.943792 0.939097 -180 0 0 0.94377
								 -0.939075 L12.17 108.17 a0.943792 0.939097 -180 0 0 -0.94377 -0.939075 L0.94 107.23 a0.943792 0.939097
								 -180 0 0 -0.94377 0.939075 L0 112.43 Z" class="st4"/>
				</g>
				<g id="shape14547-25" transform="translate(38.8513,-5.21303)">
					<title>Sheet.14547</title>
					<path d="M0 112.43 a0.943792 0.939097 -180 0 0 0.94377 0.939075 L11.23 113.37 a0.943792 0.939097 -180 0 0 0.94377
								 -0.939075 L12.17 108.17 a0.943792 0.939097 -180 0 0 -0.94377 -0.939075 L0.94 107.23 a0.943792 0.939097
								 -180 0 0 -0.94377 0.939075 L0 112.43 Z" class="st4"/>
				</g>
			</g>
		</g>
	</g>
</svg>
